src/assets/duotone/ArrowLeft3.svg

<svg width="24" height="24" viewBox="0 0 24 24"  xmlns="http://www.w3.org/2000/svg">
<path opacity="0.4" d="M10.7702 8.52002L15.8202 12.31V17.92C15.8202 18.88 14.6602 19.36 13.9802 18.68L8.80023 13.51C7.97023 12.68 7.97023 11.33 8.80023 10.5L10.7702 8.52002Z" />
<path d="M15.82 6.07993V12.3099L10.77 8.51993L13.98 5.30993C14.66 4.63993 15.82 5.11993 15.82 6.07993Z" />
</svg>

<?xml version="1.0" encoding="UTF-8"?>
<svg width="24" height="24" viewBox="0 0 24 24" xmlns="http://www.w3.org/2000/svg">
 <path d="m10.77 8.52 5.05 3.79v5.61c0 0.96-1.16 1.44-1.84 0.76l-5.18-5.17c-0.83-0.83-0.83-2.18 0-3.01l1.97-1.98z" opacity=".4"/>
 <path d="m15.82 6.0799v6.23l-5.05-3.79 3.21-3.21c0.68-0.67 1.84-0.19 1.84 0.77z"/>
</svg>
